style-guide/assets/wds-icons-user-avatar.svg

<svg xmlns="http://www.w3.org/2000/svg" xmlns:xlink="http://www.w3.org/1999/xlink" width="24" height="24" viewBox="0 0 24 24">
  <defs>
    <path id="user-avatar-a" d="M11.9998,10.9999 C11.0348,10.9999 10.2498,10.2149 10.2498,9.2499 C10.2498,8.2849 11.0348,7.4999 11.9998,7.4999 C12.9648,7.4999 13.7498,8.2849 13.7498,9.2499 C13.7498,10.2149 12.9648,10.9999 11.9998,10.9999 M11.9998,5.4999 C9.9318,5.4999 8.2498,7.1819 8.2498,9.2499 C8.2498,11.3179 9.9318,12.9999 11.9998,12.9999 C14.0678,12.9999 15.7498,11.3179 15.7498,9.2499 C15.7498,7.1819 14.0678,5.4999 11.9998,5.4999 M19.679,18.414 C17.692,16.31 14.952,15.125 12,15.125 C9.047,15.125 6.308,16.31 4.321,18.414 C2.817,16.61 2,14.369 2,12 C2,6.486 6.486,2 12,2 C17.514,2 22,6.486 22,12 C22,14.371 21.181,16.613 19.679,18.414 M12,22 C9.714,22 7.527,21.229 5.75,19.813 C7.363,18.094 9.594,17.125 12,17.125 C14.406,17.125 16.637,18.094 18.249,19.813 C16.472,21.229 14.286,22 12,22 M12,0 C5.383,0 0,5.383 0,12 C0,15.268 1.294,18.33 3.651,20.63 C3.655,20.634 3.659,20.639 3.663,20.643 C5.923,22.808 8.883,24 12,24 L12.036,24 C15.139,23.99 18.086,22.799 20.337,20.643 C20.338,20.641 20.34,20.639 20.342,20.637 C22.701,18.341 24,15.273 24,12 C24,5.383 18.617,0 12,0"/>
  </defs>
  <use fill-rule="evenodd" xlink:href="#user-avatar-a"/>
</svg>

<svg xmlns="http://www.w3.org/2000/svg" xmlns:xlink="http://www.w3.org/1999/xlink" viewBox="0 0 24 24">
  <defs>
    <path id="user-avatar-a" d="M12 11c-.965 0-1.75-.785-1.75-1.75S11.035 7.5 12 7.5s1.75.785 1.75 1.75S12.965 11 12 11m0-5.5a3.754 3.754 0 0 0-3.75 3.75A3.754 3.754 0 0 0 12 13a3.754 3.754 0 0 0 3.75-3.75A3.754 3.754 0 0 0 12 5.5m7.679 12.914c-1.987-2.104-4.727-3.289-7.679-3.289-2.953 0-5.692 1.185-7.679 3.289A9.955 9.955 0 0 1 2 12C2 6.486 6.486 2 12 2s10 4.486 10 10a9.956 9.956 0 0 1-2.321 6.414M12 22a9.995 9.995 0 0 1-6.25-2.187c1.613-1.719 3.844-2.688 6.25-2.688s4.637.969 6.249 2.688A9.993 9.993 0 0 1 12 22m0-22C5.383 0 0 5.383 0 12c0 3.268 1.294 6.33 3.651 8.63l.012.013A12 12 0 0 0 12 24h.036a12.008 12.008 0 0 0 8.306-3.363C22.701 18.341 24 15.273 24 12c0-6.617-5.383-12-12-12"/>
  </defs>
  <use fill-rule="evenodd" xlink:href="#user-avatar-a"/>
</svg>
